elusive/eye-open.svg

<?xml version="1.0" encoding="UTF-8" standalone="no"?>
<!-- Generator: IcoMoon.io -->

<svg
   xmlns:dc="http://purl.org/dc/elements/1.1/"
   xmlns:cc="http://creativecommons.org/ns#"
   xmlns:rdf="http://www.w3.org/1999/02/22-rdf-syntax-ns#"
   xmlns:svg="http://www.w3.org/2000/svg"
   xmlns="http://www.w3.org/2000/svg"
   xmlns:sodipodi="http://sodipodi.sourceforge.net/DTD/sodipodi-0.dtd"
   xmlns:inkscape="http://www.inkscape.org/namespaces/inkscape"
   id="svg2"
   version="1.1"
   data-tags="remove-circle, cancel, close, remove, delete"
   height="1200"
   width="1200"
   data-du=""
   viewBox="0 0 1200 1200"
   inkscape:version="0.48.4 r9939"
   sodipodi:docname="eye-open.svg">
  <defs
     id="defs32" />
  <sodipodi:namedview
     pagecolor="#ffffff"
     bordercolor="#666666"
     borderopacity="1"
     objecttolerance="10"
     gridtolerance="10"
     guidetolerance="10"
     inkscape:pageopacity="0"
     inkscape:pageshadow="2"
     inkscape:window-width="1535"
     inkscape:window-height="876"
     id="namedview30"
     showgrid="false"
     inkscape:zoom="0.37249375"
     inkscape:cx="455.50398"
     inkscape:cy="417.05123"
     inkscape:window-x="65"
     inkscape:window-y="24"
     inkscape:window-maximized="1"
     inkscape:current-layer="svg2" />
  <metadata
     id="metadata62">
    <rdf:RDF>
      <cc:Work
         rdf:about="">
        <dc:format>image/svg+xml</dc:format>
        <dc:type
           rdf:resource="http://purl.org/dc/dcmitype/StillImage" />
        <dc:title />
      </cc:Work>
    </rdf:RDF>
  </metadata>
  <path
     inkscape:connector-curvature="0"
     d="m 779.84251,599.92457 c 0,95.33132 -80.66414,172.6125 -180.16851,172.6125 -99.50438,0 -180.16852,-77.28118 -180.16852,-172.6125 0,-95.33133 80.66414,-172.6125 180.16852,-172.6125 99.50437,0 180.16851,77.28117 180.16851,172.6125 z M 600.00001,240.52058 C 496.97414,240.97761 390.18564,266.05878 289.0957,314.07682 214.03782,351.19902 140.89008,403.57362 77.393675,468.21823 46.208676,501.21753 6.4312524,549.0005 2.395e-6,599.98104 0.75961175,644.14221 48.129846,698.65082 77.393675,731.74387 136.93665,793.85066 208.17962,844.76137 289.0957,885.92324 c 94.27172,45.75046 198.61619,72.09168 310.90431,73.55618 103.12265,-0.4638 209.88749,-25.83369 310.86632,-73.55618 75.0579,-37.12219 148.24357,-89.53478 211.73997,-154.17937 31.185,-32.99907 70.962,-80.78204 77.3937,-131.76283 -0.7596,-44.16117 -48.1298,-98.66999 -77.3937,-131.76281 C 1063.0634,406.11144 991.78266,355.23895 910.86633,314.07682 816.6436,268.35988 712.04158,242.20011 600.00001,240.52058 z m -0.0761,89.24765 c 156.11906,0 282.67477,120.99423 282.67477,270.25079 0,149.25655 -126.55571,270.25078 -282.67477,270.25078 -156.11905,0 -282.67475,-120.99423 -282.67475,-270.25078 0,-149.25656 126.5557,-270.25079 282.67475,-270.25079 z"
     id="path6686" />
</svg>

<?xml version="1.0" encoding="utf-8"?>
<!-- Generator: Adobe Illustrator 16.0.0, SVG Export Plug-In . SVG Version: 6.00 Build 0)  -->
<!DOCTYPE svg PUBLIC "-//W3C//DTD SVG 1.1//EN" "http://www.w3.org/Graphics/SVG/1.1/DTD/svg11.dtd">
<svg version="1.1"
	 id="svg2" xmlns:dc="http://purl.org/dc/elements/1.1/" xmlns:cc="http://creativecommons.org/ns#" xmlns:rdf="http://www.w3.org/1999/02/22-rdf-syntax-ns#" xmlns:svg="http://www.w3.org/2000/svg" xmlns:sodipodi="http://sodipodi.sourceforge.net/DTD/sodipodi-0.dtd" xmlns:inkscape="http://www.inkscape.org/namespaces/inkscape" sodipodi:docname="eye-open.svg" inkscape:version="0.48.4 r9939"
	 xmlns="http://www.w3.org/2000/svg" xmlns:xlink="http://www.w3.org/1999/xlink" x="0px" y="0px" width="1200px" height="1200px"
	 viewBox="0 0 1200 1200" enable-background="new 0 0 1200 1200" xml:space="preserve">
<sodipodi:namedview  inkscape:cy="417.05123" inkscape:cx="455.50398" inkscape:zoom="0.37249375" showgrid="false" id="namedview30" guidetolerance="10" gridtolerance="10" objecttolerance="10" borderopacity="1" bordercolor="#666666" pagecolor="#ffffff" inkscape:current-layer="svg2" inkscape:window-maximized="1" inkscape:window-y="24" inkscape:window-height="876" inkscape:window-width="1535" inkscape:pageshadow="2" inkscape:pageopacity="0" inkscape:window-x="65">
	</sodipodi:namedview>
<path id="path6686" inkscape:connector-curvature="0" d="M779.843,599.925c0,95.331-80.664,172.612-180.169,172.612
	c-99.504,0-180.168-77.281-180.168-172.612c0-95.332,80.664-172.612,180.168-172.612
	C699.179,427.312,779.843,504.594,779.843,599.925z M600,240.521c-103.025,0.457-209.814,25.538-310.904,73.557
	c-75.058,37.122-148.206,89.496-211.702,154.141C46.208,501.218,6.431,549,0,599.981c0.76,44.161,48.13,98.669,77.394,131.763
	c59.543,62.106,130.786,113.018,211.702,154.179c94.271,45.751,198.616,72.092,310.904,73.557
	c103.123-0.464,209.888-25.834,310.866-73.557c75.058-37.122,148.243-89.534,211.74-154.179
	c31.185-32.999,70.962-80.782,77.394-131.763c-0.76-44.161-48.13-98.671-77.394-131.764
	c-59.543-62.106-130.824-112.979-211.74-154.141C816.644,268.36,712.042,242.2,600,240.521z M599.924,329.769
	c156.119,0,282.675,120.994,282.675,270.251c0,149.256-126.556,270.25-282.675,270.25S317.249,749.275,317.249,600.02
	C317.249,450.763,443.805,329.769,599.924,329.769L599.924,329.769z"/>
</svg>
